korla/status/symbolic/arch-updates-symbolic.svg

<svg style="clip-rule:evenodd;fill-rule:evenodd;stroke-linejoin:round;stroke-miterlimit:2" version="1.1" viewBox="0 0 16 16" xmlns="http://www.w3.org/2000/svg">
 <g transform="translate(-1.52854)">
  <path d="m16 13.5c0 0.823-0.677 1.5-1.5 1.5s-1.5-0.677-1.5-1.5 0.677-1.5 1.5-1.5 1.5 0.677 1.5 1.5z" style="fill-rule:nonzero;fill:rgb(13,161,195)"/>
 </g>
 <path d="M8,1C6.175,2.725 3.298,4 2.357,4.25C2.357,10.846 4.548,13.456 8,15C11.571,13.714 13.643,10.866 13.643,4.25C12.702,4 9.825,2.725 8,1ZM8,1.699C6.302,3.058 4.175,4.11 2.87,4.62C3.025,10.449 4.941,13.017 8.042,14.536C11.219,13.226 12.989,10.457 13.131,4.621C11.826,4.111 9.698,3.059 8,1.699Z" style="fill:rgb(223,223,223)"/>
 <path d="m6 7h3v5h-2v-4h-1v-1z" style="fill:rgb(223,223,223)"/>
 <path d="m8 4c0.549 0 1 0.451 1 1s-0.451 1-1 1-1-0.451-1-1 0.451-1 1-1z" style="fill:rgb(223,223,223)"/>
</svg>

<svg xmlns="http://www.w3.org/2000/svg" width="16" height="16" version="1.1">
 <path style="fill:#4285f4" class="warning" d="M 16,13.5 A 1.5,1.5 0 0 1 14.5,15 1.5,1.5 0 0 1 13,13.5 1.5,1.5 0 0 1 14.5,12 1.5,1.5 0 0 1 16,13.5 Z"/>
 <path style="fill:#dfdfdf" d="M 8 1 C 6.175 2.725 3 4 2 4.25 C 2 9 4.25 14.25 8 15 C 11.75 14.25 14 9 14 4.25 C 13 4 9.825 2.725 8 1 z M 8 4 A 1 1 0 0 1 9 5 A 1 1 0 0 1 8 6 A 1 1 0 0 1 7 5 A 1 1 0 0 1 8 4 z M 6 7 L 7 7 L 9 7 L 9 12 L 7 12 L 7 8 L 6 8 L 6 7 z"/>
</svg>
